X: 34122
T: Reel Du Berchail
R: reel
M: 4/4
K: Gdorian
G3A BGAF|D2Bd cABc|dGGD FGAc|[M:6/4]B2A2 dABc B2AF|
[M:4/4]G3A BGAF|D2Bd cABc|dgge fedc|1 d2Bd cAFD:|2 d2Bd cAFA||
|:B2fB gBeg|fcAF cFAc|BBGB dGBd|_edcB AB c/B/A|B2fB gBeg|
fcAF cFAc|B2GB dccB|1 cece d3A:|2 cece d2eg|[M:6/4]fedc d2Bd cAFD||

